X:5
T: Coleman's Cross
S: Kathleen Collins
Z: B. Black
R: reel
M: 4/4
L: 1/8
K: Edor
edBA GFGE | DEGB AE E2 | GEDB, DEGA | BABd efgf |
edBA GFGE | DEGB AE E2 | GEDB, DEGA | Bdgf e2 ef ||
g2 gf gfed | Bdef edBd | gbaf gfed | Bdgf e2 ef |
g2 ge f2 fd | eafd edBd | dBAF GFGA | BABd efge ||
